black/svg/E051.svg

<svg id="emoji" viewBox="0 0 72 72" xmlns="http://www.w3.org/2000/svg">
  <g id="line">
    <path fill="none" stroke="#000" stroke-linecap="round" stroke-linejoin="round" stroke-width="2" d="m36,64c15.464,0,28-12.536,28-28s-12.536-28-28-28-28,12.536-28,28,12.536,28,28,28Z"/>
    <path fill="none" stroke="#000" stroke-linecap="round" stroke-linejoin="round" stroke-width="2" d="m33.2,33.2l-9.2,14.8,14.8-9.2"/>
    <path fill="none" stroke="#000" stroke-linecap="round" stroke-linejoin="round" stroke-width="2" d="m33.2,33.2l14.8-9.2-9.2,14.8"/>
  </g>
</svg>

<svg id="emoji" viewBox="0 0 72 72" xmlns="http://www.w3.org/2000/svg">
  <g id="line">
    <path fill="none" stroke="#000" stroke-linecap="round" stroke-linejoin="round" stroke-width="2" d="M36 64C51.464 64 64 51.464 64 36C64 20.536 51.464 8 36 8C20.536 8 8 20.536 8 36C8 51.464 20.536 64 36 64Z"/>
    <path fill="none" stroke="#000" stroke-linecap="round" stroke-linejoin="round" stroke-width="2" d="M33.2 33.2L24 48L38.8 38.8"/>
    <path fill="none" stroke="#000" stroke-linecap="round" stroke-linejoin="round" stroke-width="2" d="M33.2 33.2L48 24L38.8 38.8"/>
  </g>
</svg>
